X: 57
T:Maid in the Cherry Tree, The
M:C|
L:1/8
Q:200
S:THSP
R:reel
Z:
K:Amin
"Am"eA (3cBA eA (3cBA|"G"GABc dBcd|"Am"eA (3cBA eA (3cBA|"G"GABd "Am"cAA
2|
eA (3cBA eA (3cBA|"G"GABc dBcd|"F"c3A "Em"B2ge
|1 "G"dBGA "Am"BAA2:|2 "G"dBGA "Am"BAAB||:
"C"(3ccc ec gcec|(3ccc ec "G"dBGB|"C"(3ccc ec gcec|"G"dBGA "Am"BAAB|
"C"(3ccc ec gcec|(3ccc ec "G"dBGB|"Am"c3A "Em"B2ge
|1 "G"dBGA "Am"BAAB:|2 "G"dBGA "Am"BAA2|]
